src/micalogo-small.svg

<svg width="90" height="23" viewBox="0 0 90 23" xmlns="http://www.w3.org/2000/svg" xmlns:xlink="http://www.w3.org/1999/xlink"><title>MICA_Logo_SmallScale_Black</title><defs><path id="a" d="M28.69 22.94L28.69 0.67 0.306 0.67 0.306 22.94z"/></defs><g fill="none" fill-rule="evenodd"><path fill="#000" d="M32.964 19.196L32.964 15.52 34.602 15.52 34.602 8.125 32.964 8.125 32.964 4.47 42.754 4.47 42.754 8.125 41.115 8.125 41.115 15.52 42.754 15.52 42.754 19.196 32.964 19.196"/><path d="M61.913 11.339v-.189c.021-1.343-.4-3.277-2.122-3.277-2.228 0-2.354 2.416-2.354 4.076 0 1.617.252 4.097 2.396 4.097 1.974 0 2.311-1.639 2.143-3.257h4.202v.692c-.042 4.329-3.384 5.989-7.332 5.989-4.938 0-8.32-2.437-8.32-7.605 0-4.369 2.71-7.69 7.228-7.69 2.099 0 3.214.653 4.432 2.332l.042-2.037h3.991v6.869h-4.306" fill="#000"/><path fill="#000" d="M28.307 22.909L28.96 22.909 28.96 0.77 28.307 0.77z"/><g transform="translate(46)"><mask id="b" fill="#fff"><use xlink:href="#a"/></mask><path fill="#000" mask="url(#b)" d="M0.306 22.909L0.96 22.909 0.96 0.77 0.306 0.77z"/><path fill="#000" mask="url(#b)" d="M21.254 23L28.69 0.878 28.071 0.67 20.635 22.791z"/></g><path d="M5.706 15.52h1.336v3.676H0V15.52h1.638V8.125H0V4.47h11.092c.399 1.324.903 2.605 1.281 3.929.42-1.345.945-2.626 1.45-3.929h9.622v3.655h-1.639v7.395h1.639v3.676h-8.628V15.52h1.239V9.106l-3.792 10.09h-2.47L5.706 9.337v6.183m74.147-7.403c-.23.987-1.005 3.033-1.3 4h2.635c-.272-.987-1.104-2.992-1.335-4zm.874 11.079V15.52h1.598c-.168-.566-.422-1.134-.569-1.702h-3.748c-.147.568-.378 1.136-.546 1.702h1.635v3.676h-6.155V15.52h1.302c1.24-3.676 2.437-7.374 3.698-11.05h6.681a392.598 392.598 0 0 0 3.612 11.05H90v3.676h-9.273z" fill="#000"/></g></svg>

<?xml version="1.0" encoding="UTF-8"?>
<svg width="90px" height="23px" viewBox="0 0 90 23" version="1.1" xmlns="http://www.w3.org/2000/svg" xmlns:xlink="http://www.w3.org/1999/xlink">
    <!-- Generator: Sketch 46.2 (44496) - http://www.bohemiancoding.com/sketch -->
    <title>MICA_Logo_SmallScale_Black</title>
    <desc>Created with Sketch.</desc>
    <defs>
        <polygon id="path-1" points="28.69 22.94 28.69 0.67 0.306 0.67 0.306 22.94"></polygon>
    </defs>
    <g id="Page-1" stroke="none" stroke-width="1" fill="none" fill-rule="evenodd">
        <g id="MICA_Logo_SmallScale_Black">
            <polyline id="Fill-1" fill="#000000" points="32.964 19.196 32.964 15.52 34.602 15.52 34.602 8.125 32.964 8.125 32.964 4.47 42.754 4.47 42.754 8.125 41.115 8.125 41.115 15.52 42.754 15.52 42.754 19.196 32.964 19.196"></polyline>
            <path d="M61.913,11.339 L61.913,11.15 C61.934,9.807 61.513,7.873 59.791,7.873 C57.563,7.873 57.437,10.289 57.437,11.949 C57.437,13.566 57.689,16.046 59.833,16.046 C61.807,16.046 62.144,14.407 61.976,12.789 L66.178,12.789 L66.178,13.481 C66.136,17.81 62.794,19.47 58.846,19.47 C53.908,19.47 50.526,17.033 50.526,11.865 C50.526,7.496 53.236,4.175 57.754,4.175 C59.853,4.175 60.968,4.828 62.186,6.507 L62.228,4.47 L66.219,4.47 L66.219,11.339 L61.913,11.339" id="Fill-2" fill="#000000"></path>
            <polygon id="Fill-3" fill="#000000" points="28.307 22.909 28.96 22.909 28.96 0.77 28.307 0.77"></polygon>
            <g id="Group-7" transform="translate(46.000000, 0.000000)">
                <mask id="mask-2" fill="white">
                    <use xlink:href="#path-1"></use>
                </mask>
                <g id="Clip-5"></g>
                <polygon id="Fill-4" fill="#000000" mask="url(#mask-2)" points="0.306 22.909 0.96 22.909 0.96 0.77 0.306 0.77"></polygon>
                <polygon id="Fill-6" fill="#000000" mask="url(#mask-2)" points="21.254 23 28.69 0.878 28.071 0.67 20.635 22.791"></polygon>
            </g>
            <path d="M5.706,15.52 L7.042,15.52 L7.042,19.196 L0,19.196 L0,15.52 L1.638,15.52 L1.638,8.125 L0,8.125 L0,4.47 L11.092,4.47 C11.491,5.794 11.995,7.075 12.373,8.399 C12.793,7.054 13.318,5.773 13.823,4.47 L23.445,4.47 L23.445,8.125 L21.806,8.125 L21.806,15.52 L23.445,15.52 L23.445,19.196 L14.817,19.196 L14.817,15.52 L16.056,15.52 L16.056,9.106 L12.264,19.196 L9.794,19.196 L5.706,9.337 L5.706,15.52" id="Fill-8" fill="#000000"></path>
            <path d="M79.853,8.117 C79.623,9.104 78.848,11.15 78.553,12.117 L81.188,12.117 C80.916,11.13 80.084,9.125 79.853,8.117 Z M80.727,19.196 L80.727,15.52 L82.325,15.52 C82.157,14.954 81.903,14.386 81.756,13.818 L78.008,13.818 C77.861,14.386 77.63,14.954 77.462,15.52 L79.097,15.52 L79.097,19.196 L72.942,19.196 L72.942,15.52 L74.244,15.52 C75.484,11.844 76.681,8.146 77.942,4.47 L84.623,4.47 C85.777,8.167 86.974,11.865 88.235,15.52 L90,15.52 L90,19.196 L80.727,19.196 L80.727,19.196 Z" id="Fill-9" fill="#000000"></path>
        </g>
    </g>
</svg>
